libs/icons/src/svg/customize.svg

<svg width="16" height="16" viewBox="0 0 16 16" fill="none" xmlns="http://www.w3.org/2000/svg">
<g clip-path="url(#clip0_3_3713)">
<path fill-rule="evenodd" clip-rule="evenodd" d="M5.02665 2.00087C4.73422 2.01256 4.40831 2.12269 4.18231 2.28089L4.1785 2.28355L4.17849 2.28354C2.42341 3.49394 1.33333 5.48988 1.33333 7.73473C1.33333 11.4332 4.30152 14.4014 8 14.4014C11.0238 14.4014 13.629 12.3459 14.4211 9.56775C14.5418 9.04794 14.6713 8.11866 14.5175 7.20352C14.3653 6.29723 13.9523 5.47407 13.039 4.99971C11.6596 4.35714 10.3865 4.67489 9.1398 5.06294C9.06838 5.08517 8.99592 5.10804 8.92268 5.13115C8.39322 5.29821 7.82274 5.47822 7.30906 5.52473C6.6678 5.58278 6.0019 5.44504 5.48785 4.82819L5.47942 4.81786C5.19053 4.45675 5.16826 4.04807 5.20713 3.73407C5.23936 3.47378 5.32512 3.20112 5.38996 2.99496L5.41329 2.92047C5.4901 2.67298 5.53412 2.50395 5.54023 2.36568C5.54525 2.25242 5.52311 2.20383 5.48785 2.16152C5.47266 2.1433 5.45846 2.12427 5.4453 2.10453C5.43195 2.08451 5.33871 1.98838 5.02665 2.00087ZM6.53427 1.33507C6.14467 0.780228 5.48555 0.648111 4.97335 0.668598C4.43326 0.690202 3.86009 0.879539 3.41969 1.18718C1.30916 2.64358 0 5.04702 0 7.73473C0 12.1696 3.56514 15.7347 8 15.7347C11.6377 15.7347 14.762 13.264 15.7082 9.91604C15.7109 9.90656 15.7134 9.89702 15.7156 9.88742C15.8606 9.27103 16.0273 8.14235 15.8325 6.98261C15.6353 5.80905 15.0509 4.53506 13.6382 3.80854C13.6311 3.80487 13.6239 3.80132 13.6166 3.79791C11.7336 2.91403 10.0101 3.39561 8.74354 3.78985C8.66893 3.81308 8.59669 3.83571 8.52666 3.85766L8.52543 3.85805L8.52511 3.85815L8.52501 3.85818C7.96635 4.03327 7.54831 4.16428 7.18885 4.19682C6.85176 4.22734 6.67628 4.1622 6.52698 3.99197C6.52511 3.97837 6.52394 3.94981 6.53036 3.8979C6.54676 3.76548 6.59367 3.61473 6.66627 3.38142L6.66627 3.38141L6.68671 3.31567C6.7599 3.07982 6.85755 2.75718 6.87226 2.42462C6.88769 2.07605 6.81409 1.68584 6.53427 1.33507ZM6.52957 4.00222C6.52936 4.00247 6.5285 4.00065 6.52763 3.996C6.52934 3.99963 6.52978 4.00196 6.52957 4.00222ZM11.3333 7.06805C10.9651 7.06805 10.6667 7.36652 10.6667 7.73471C10.6667 8.1029 10.9651 8.40138 11.3333 8.40138C11.7015 8.40138 12 8.1029 12 7.73471C12 7.36652 11.7015 7.06805 11.3333 7.06805ZM9.33333 7.73471C9.33333 6.63014 10.2288 5.73471 11.3333 5.73471C12.4379 5.73471 13.3333 6.63014 13.3333 7.73471C13.3333 8.83928 12.4379 9.73471 11.3333 9.73471C10.2288 9.73471 9.33333 8.83928 9.33333 7.73471ZM3.33333 6.40138C2.59695 6.40138 2 6.99833 2 7.73471C2 8.47109 2.59695 9.06804 3.33333 9.06804C4.06971 9.06804 4.66667 8.47109 4.66667 7.73471C4.66667 6.99833 4.06971 6.40138 3.33333 6.40138ZM3.66667 11.068C3.66667 10.3317 4.26362 9.73471 5 9.73471C5.73638 9.73471 6.33333 10.3317 6.33333 11.068C6.33333 11.8044 5.73638 12.4014 5 12.4014C4.26362 12.4014 3.66667 11.8044 3.66667 11.068ZM8.66667 11.068C7.93029 11.068 7.33333 11.665 7.33333 12.4014C7.33333 13.1378 7.93029 13.7347 8.66667 13.7347C9.40305 13.7347 10 13.1378 10 12.4014C10 11.665 9.40305 11.068 8.66667 11.068Z" fill="#202327"/>
</g>
<defs>
<clipPath id="clip0_3_3713">
<rect width="16" height="16" fill="white"/>
</clipPath>
</defs>
</svg>

<svg xmlns="http://www.w3.org/2000/svg" viewBox="0 0 16 16" class="sageicon"><path fill-rule="evenodd" d="M5.027 2a1.679 1.679 0 0 0-.845.28l-.004.004a6.575 6.575 0 0 0-2.845 5.45A6.646 6.646 0 0 0 8 14.402c3.024 0 5.629-2.055 6.421-4.833.12-.52.25-1.45.097-2.364-.153-.907-.566-1.73-1.479-2.204-1.38-.643-2.652-.325-3.9.063l-.216.068c-.53.167-1.1.347-1.614.394-.641.058-1.307-.08-1.821-.697l-.009-.01c-.288-.361-.31-.77-.272-1.084.032-.26.118-.533.183-.739l.023-.075c.077-.247.121-.416.127-.554.005-.114-.017-.162-.052-.204a.665.665 0 0 1-.043-.057c-.013-.02-.106-.117-.418-.104Zm1.507-.665C6.144.78 5.486.648 4.974.67a3.01 3.01 0 0 0-1.554.518A7.909 7.909 0 0 0 0 7.735c0 4.435 3.565 8 8 8 3.638 0 6.762-2.471 7.708-5.819a.567.567 0 0 0 .008-.029c.145-.616.311-1.745.117-2.904-.198-1.174-.782-2.448-2.195-3.174a.6.6 0 0 0-.021-.011c-1.883-.884-3.607-.402-4.873-.008l-.217.068h-.002c-.559.175-.977.306-1.336.339-.337.03-.513-.035-.662-.205a.389.389 0 0 1 .003-.094c.017-.133.064-.283.136-.517l.02-.065c.074-.236.172-.559.186-.891a1.59 1.59 0 0 0-.338-1.09ZM6.53 4.002s-.002-.001-.002-.006l.002.006Zm4.803 3.066a.667.667 0 1 0 0 1.333.667.667 0 0 0 0-1.333Zm-2 .667a2 2 0 1 1 4 0 2 2 0 0 1-4 0Zm-6-1.334a1.333 1.333 0 1 0 0 2.667 1.333 1.333 0 0 0 0-2.667Zm.334 4.667a1.333 1.333 0 1 1 2.666 0 1.333 1.333 0 0 1-2.666 0Zm5 0a1.333 1.333 0 1 0 0 2.667 1.333 1.333 0 0 0 0-2.667Z"/></svg>
